outputs/icons/action/unlock_alt_sharp.svg

<svg width="1200" height="1200" viewBox="0 0 1200 1200" fill="none" xmlns="http://www.w3.org/2000/svg"><g clip-path="url(#clip0_755_1932)"><path fill-rule="evenodd" d="M1000 399.994H850V310.494C850 179.994 754.5 63.494 624.5 50.994C475.5 36.994 350 153.994 350 299.994H450C450 243.494 480 187.994 532 164.994C642.5 115.494 750 194.994 750 299.994V399.994H200V1099.995H1000V399.994ZM600 850C655.23 850 700 805.23 700 750C700 694.775 655.23 650 600 650C544.77 650 500 694.775 500 750C500 805.23 544.77 850 600 850Z" fill="black"/></g><defs><clipPath id="clip0_755_1932"><path width="24" fill="white" d="M0 0H1200V1200H0V0z"/></clipPath></defs></svg>

<svg xmlns="http://www.w3.org/2000/svg" width="1200" height="1200" fill="none"><g clip-path="url(#a)"><path fill="#000" fill-rule="evenodd" d="M1000 399.994H850v-89.5c0-130.5-95.5-247-225.5-259.5-149-14-274.5 103-274.5 249h100c0-56.5 30-112 82-135 110.5-49.5 218 30 218 135v100H200v700.001h800zM600 850c55.23 0 100-44.77 100-100 0-55.225-44.77-100-100-100s-100 44.775-100 100c0 55.23 44.77 100 100 100"/></g><defs><clipPath id="a"><path fill="#fff" d="M0 0h1200v1200H0z"/></clipPath></defs></svg>
